X: 2962
T: Barz Du
R: polka
M: 2/4
K: Aminor
AB|:cB Ae|dc Bc|BE ^F^G|A2 AB:|
|:cB Ae|dc d2|fe df|ed cd|ed ce|dc Bc|
[1 BE ^F^G|A2 AB:|2 BE ^F^G|A2 Ac|BE ^F^G|A2||

